X:1
T:Grayton Beach, 76.76 D
T:Grayton Beach, 76.76 D
T:John Harrison Tenney, 1894
T:Public Domain Courtesy of the Cyber Hymnal™
C:John Harrison Tenney, 1894
Z:Public Domain
Z:Courtesy of the Cyber Hymnal™
%%score ( 1 2 ) ( 3 4 )
L:1/8
Q:1/4=97
M:3/4
K:Db
V:1 treble 
V:2 treble 
V:3 bass 
V:4 bass 
V:1
 [FA]2 | [FA]3 [FA] [GB][FA] | [FA] [DF]3 [FA]2 | [EG]3 [EG] [CA][EG] | [DF]4 [FA]2 | %5
 [FA]3 [FA] [GB][FA] | [FA] [DF]3 [Fd]2 | [Ec]3 [EA] [EB][Ec] | [EA]4 [EA]2 | [Ge]3 [Fd] [Ec][GB] | %10
 [GB] [FA]3 [FA]2 | [GB]3 [Bd] [Ac][GB] | [FA]4 [DF]2 | [DF]3 [DF] [CG][DA] | [Dc] [DB]3 [=Ed]2 | %15
 [Fd]3 [FA] [EG][CE] | D4 |] %17
V:2
 x2 | x6 | x6 | x6 | x6 | x6 | x6 | x6 | x6 | x6 | x6 | x6 | x6 | x6 | x6 | x6 | D4 |] %17
V:3
 [D,D]2 | [D,D]3 [D,D] [D,D][D,D] | [D,D] [D,A,]3 [D,D]2 | [A,,C]3 [A,,C] [A,,A,][A,,A,] | %4
 [D,A,]4 [D,D]2 | [D,D]3 [D,D] [D,D][D,D] | [D,D] [D,A,]3 [D,A,]2 | [E,A,]3 [E,C] [E,D][E,E] | %8
 [A,,C]4 [A,C]2 | [A,C]3 [A,D] [A,,E][A,,C] | [D,D] [D,D]3 [D,D]2 | [G,D]3 [G,D] [G,D][G,D] | %12
 [D,D]4 [D,A,]2 | [D,A,]3 [D,A,] [E,A,][F,A,] | G, _G,3 [=G,B,]2 | A,3 A, [A,,A,][A,,G,] | %16
 [D,F,]4 |] %17
V:4
 x2 | x6 | x6 | x6 | x6 | x6 | x6 | x6 | x6 | x6 | x6 | x6 | x6 | x6 | =G, =G,3 x2 | A,3 A, x2 | %16
 x4 |] %17

